icon-themes/breeze_svg/cmd/32/shrink.svg

<svg viewBox="0 0 32 32" xmlns="http://www.w3.org/2000/svg"><path d="m13 4-8.9296875 23.824219-.0703125.175781h2l3.3925781-9h4.6074219 4 .607422 2.013672l-5.621094-15h-1zm1 2.4023438 3.849609 10.5976562h-3.849609-3.849609z" fill="#4d4d4d"/><path d="m23 17v9.085938l-3.792969-3.792969-.707031.707031 4 4 1 1 1-1 4-4-.707031-.707031-3.792969 3.792969v-9.085938z" fill="#1d99f3"/></svg>

<svg xmlns="http://www.w3.org/2000/svg" viewBox="0 0 32 32">
 <path 
     style="fill:#4d4d4d" 
     d="M 13 4 L 4.0703125 27.824219 L 4 28 L 6 28 L 9.3925781 19 L 14 19 L 18 19 L 18.607422 19 L 20.621094 19 L 15 4 L 14 4 L 13 4 z M 14 6.4023438 L 17.849609 17 L 14 17 L 10.150391 17 L 14 6.4023438 z "
     />
 <path 
     style="fill:#1d99f3" 
     d="M 22.5 17 L 22.5 26.085938 L 18.707031 22.292969 L 18 23 L 22 27 L 23 28 L 24 27 L 28 23 L 27.292969 22.292969 L 23.5 26.085938 L 23.5 17 L 22.5 17 z "
     />
</svg>
